packages/webapp/src/assets/images/middle_logo.svg

<?xml version="1.0" encoding="UTF-8" standalone="no"?>
<svg
   width="93"
   height="58"
   viewBox="0 0 93 58"
   fill="none"
   version="1.1"
   id="svg13834"
   sodipodi:docname="middle_logo.svg"
   inkscape:version="1.2.2 (732a01da63, 2022-12-09)"
   xmlns:inkscape="http://www.inkscape.org/namespaces/inkscape"
   xmlns:sodipodi="http://sodipodi.sourceforge.net/DTD/sodipodi-0.dtd"
   xmlns="http://www.w3.org/2000/svg"
   xmlns:svg="http://www.w3.org/2000/svg">
  <defs
     id="defs13838" />
  <sodipodi:namedview
     id="namedview13836"
     pagecolor="#ffffff"
     bordercolor="#000000"
     borderopacity="0.25"
     inkscape:showpageshadow="2"
     inkscape:pageopacity="0.0"
     inkscape:pagecheckerboard="0"
     inkscape:deskcolor="#d1d1d1"
     showgrid="false"
     inkscape:zoom="13.37931"
     inkscape:cx="42.229381"
     inkscape:cy="32.737113"
     inkscape:window-width="1920"
     inkscape:window-height="974"
     inkscape:window-x="-11"
     inkscape:window-y="-11"
     inkscape:window-maximized="1"
     inkscape:current-layer="svg13834" />
  <g
     id="g13965"
     transform="matrix(0.47699257,0,0,0.4656053,46.713917,22.100563)">
    <path
       d="M 0,58 V 46.5781 H 0.796875 V 57.25 H 6.24219 V 58 Z"
       fill="#028577"
       id="path13818" />
    <path
       d="M 11.2188,58 V 46.5781 h 0.7968 V 58 Z"
       fill="#028577"
       id="path13820" />
    <path
       d="M 21.2266,58 H 20.4219 V 47.3281 h -3.711 v -0.75 h 8.2266 v 0.75 h -3.7109 z"
       fill="#028577"
       id="path13822" />
    <path
       d="M 35.8828,58 H 29.6406 V 46.5781 h 6.2422 v 0.7344 h -5.4453 v 4.3203 h 5.1406 v 0.7344 h -5.1406 v 4.8984 h 5.4453 z"
       fill="#028577"
       id="path13824" />
    <path
       d="M 43.6719,58 H 41.2891 V 46.5781 h 6.5468 v 1.9844 h -4.164 v 2.9453 h 3.875 v 1.9766 h -3.875 z"
       fill="#028577"
       id="path13826" />
    <path
       d="M 60.0625,58 59.2344,55.2812 H 55.0703 L 54.2422,58 H 51.6328 L 55.6641,46.5312 H 58.625 L 62.6719,58 Z m -1.4063,-4.75 c -0.7656,-2.4635 -1.1979,-3.8568 -1.2968,-4.1797 -0.0938,-0.3229 -0.1615,-0.5781 -0.2032,-0.7656 -0.1718,0.6667 -0.664,2.3151 -1.4765,4.9453 z"
       fill="#028577"
       id="path13828" />
    <path
       d="m 69.5391,51.6484 h 0.7812 c 0.7656,0 1.3307,-0.1276 1.6953,-0.3828 0.3646,-0.2552 0.5469,-0.6562 0.5469,-1.2031 0,-0.5417 -0.1875,-0.9271 -0.5625,-1.1563 -0.3698,-0.2291 -0.9453,-0.3437 -1.7266,-0.3437 h -0.7343 z m 0,1.9688 V 58 H 67.1172 V 46.5781 h 3.3281 c 1.5521,0 2.7005,0.2839 3.4453,0.8516 0.7448,0.5625 1.1172,1.4193 1.1172,2.5703 0,0.6719 -0.1849,1.2708 -0.5547,1.7969 -0.3698,0.5208 -0.8932,0.9297 -1.5703,1.2265 1.7188,2.5677 2.8386,4.2266 3.3594,4.9766 h -2.6875 l -2.7266,-4.3828 z"
       fill="#028577"
       id="path13830" />
    <path
       d="m 85.5156,58 -2.75,-8.9609 h -0.0703 c 0.099,1.8229 0.1485,3.039 0.1485,3.6484 V 58 H 80.6797 V 46.5781 h 3.2969 l 2.7031,8.7344 h 0.0469 l 2.8672,-8.7344 h 3.2968 V 58 h -2.2578 v -5.4062 c 0,-0.2553 0.0026,-0.5495 0.0078,-0.8829 0.0104,-0.3333 0.0469,-1.2187 0.1094,-2.6562 H 90.6797 L 87.7344,58 Z"
       fill="#028577"
       id="path13832" />
  </g>
  <text
     xml:space="preserve"
     style="font-size:15.113px;fill:#458f83;fill-opacity:1;stroke-width:0.399842"
     x="8.0464849"
     y="27.487669"
     id="text471"
     transform="scale(0.92120722,1.0855321)"><tspan
       sodipodi:role="line"
       id="tspan469"
       style="fill:#458f83;fill-opacity:1;stroke-width:0.399842"
       x="8.0464849"
       y="27.487669">true wellth</tspan></text>
  <text
     xml:space="preserve"
     style="font-size:2.9671px;fill:#458f83;fill-opacity:1;stroke-width:0.0784999"
     x="26.867147"
     y="46.978153"
     id="text471-5"
     transform="scale(0.96026103,1.0413835)"><tspan
       sodipodi:role="line"
       id="tspan469-5"
       style="fill:#458f83;fill-opacity:1;stroke-width:0.0784999"
       x="26.867147"
       y="46.978153">Powered By </tspan></text>
</svg>

<svg width="93" height="58" viewBox="0 0 93 58" fill="none" xmlns="http://www.w3.org/2000/svg">
<rect x="28.3828" width="36" height="36" fill="white"/>
<rect x="28.3828" width="9.3913" height="4.17391" fill="#83CAA4"/>
<rect x="28.3828" y="10.4348" width="9.3913" height="6.78261" fill="#83CAA4"/>
<rect x="28.3828" y="5.21741" width="4.17391" height="4.17391" fill="#83CAA4"/>
<rect x="38.8176" y="31.8261" width="4.69565" height="4.17391" fill="#83CAA4"/>
<rect x="38.8176" y="26.6087" width="4.69565" height="4.17391" fill="#FFB800"/>
<rect x="44.5567" y="31.8261" width="14.087" height="4.17391" fill="#83CAA4"/>
<rect x="44.5567" y="26.6087" width="19.8261" height="4.17391" fill="#83CAA4"/>
<rect x="59.6872" y="31.8261" width="4.69565" height="4.17391" fill="#028577"/>
<rect x="33.6002" y="5.21741" width="4.17391" height="4.17391" fill="#028577"/>
<rect x="28.3828" y="18.2609" width="9.3913" height="17.7391" fill="#028577"/>
<rect x="38.8176" width="25.5652" height="25.5652" fill="#028577"/>
<path d="M0 58V46.5781H0.796875V57.25H6.24219V58H0Z" fill="#028577"/>
<path d="M11.2188 58V46.5781H12.0156V58H11.2188Z" fill="#028577"/>
<path d="M21.2266 58H20.4219V47.3281H16.7109V46.5781H24.9375V47.3281H21.2266V58Z" fill="#028577"/>
<path d="M35.8828 58H29.6406V46.5781H35.8828V47.3125H30.4375V51.6328H35.5781V52.3672H30.4375V57.2656H35.8828V58Z" fill="#028577"/>
<path d="M43.6719 58H41.2891V46.5781H47.8359V48.5625H43.6719V51.5078H47.5469V53.4844H43.6719V58Z" fill="#028577"/>
<path d="M60.0625 58L59.2344 55.2812H55.0703L54.2422 58H51.6328L55.6641 46.5312H58.625L62.6719 58H60.0625ZM58.6562 53.25C57.8906 50.7865 57.4583 49.3932 57.3594 49.0703C57.2656 48.7474 57.1979 48.4922 57.1562 48.3047C56.9844 48.9714 56.4922 50.6198 55.6797 53.25H58.6562Z" fill="#028577"/>
<path d="M69.5391 51.6484H70.3203C71.0859 51.6484 71.651 51.5208 72.0156 51.2656C72.3802 51.0104 72.5625 50.6094 72.5625 50.0625C72.5625 49.5208 72.375 49.1354 72 48.9062C71.6302 48.6771 71.0547 48.5625 70.2734 48.5625H69.5391V51.6484ZM69.5391 53.6172V58H67.1172V46.5781H70.4453C71.9974 46.5781 73.1458 46.862 73.8906 47.4297C74.6354 47.9922 75.0078 48.849 75.0078 50C75.0078 50.6719 74.8229 51.2708 74.4531 51.7969C74.0833 52.3177 73.5599 52.7266 72.8828 53.0234C74.6016 55.5911 75.7214 57.25 76.2422 58H73.5547L70.8281 53.6172H69.5391Z" fill="#028577"/>
<path d="M85.5156 58L82.7656 49.0391H82.6953C82.7943 50.862 82.8438 52.0781 82.8438 52.6875V58H80.6797V46.5781H83.9766L86.6797 55.3125H86.7266L89.5938 46.5781H92.8906V58H90.6328V52.5938C90.6328 52.3385 90.6354 52.0443 90.6406 51.7109C90.651 51.3776 90.6875 50.4922 90.75 49.0547H90.6797L87.7344 58H85.5156Z" fill="#028577"/>
</svg>
